; generated by Slic3r 1.2.9 on 2021-02-11 at 21:16:34

; external perimeters extrusion width = 0.30mm
; perimeters extrusion width = 0.40mm
; infill extrusion width = 0.40mm
; solid infill extrusion width = 0.40mm
; top infill extrusion width = 0.40mm

M107 ; disable fan
M42 P45 S150 ; Turn on electronics fan

M140 S60 ; Set Bed first_layer_bed_temperature
M104 S190 T0 ; Set Hotend first_layer_temperature_0

G1 Z5 F5000 ; lift nozzle
G28 ; home all axes
G1 Z5 F5000 ; lift nozzle

M109 R190 T0 ; Wait for Hotend first_layer_temperature_0


G21 ; set units to millimeters
G90 ; use absolute coordinates
M82 ; use absolute distances for extrusion
G92 E0 ; reset extrusion distance
G1 E-2.00000 F2400.00000 ; retract
G92 E0 ; reset extrusion distance
G1 Z0.300 F7800.000 ; move to next layer (0)
G1 X38.885 Y70.407 F7800.000 ; move to first skirt point
G1 E2.00000 F2400.00000 ; unretract
G1 X43.036 Y68.475 E2.04533 F1200.000 ; skirt
G1 X47.459 Y67.293 E2.09066 ; skirt
G1 X52.000 Y66.897 E2.13578 ; skirt
G1 X64.336 Y66.899 E2.25791 ; skirt
G1 X148.336 Y67.974 E3.08960 F1200.000 ; skirt
G1 X152.892 Y68.432 E3.13492 ; skirt
G1 X157.298 Y69.674 E3.18025 ; skirt
G1 X161.422 Y71.662 E3.22558 ; skirt
G1 X165.138 Y74.337 E3.27091 ; skirt
G1 X168.333 Y77.617 E3.31624 ; skirt
G1 X170.909 Y81.402 E3.36156 ; skirt
G1 X172.788 Y85.577 E3.40689 ; skirt
G1 X173.913 Y90.015 E3.45222 ; skirt
G1 X174.253 Y94.225 E3.49403 ; skirt
G1 X174.253 Y106.000 E3.61061 ; skirt
G1 X173.854 Y110.561 E3.65594 ; skirt
G1 X172.668 Y114.983 E3.70126 ; skirt
G1 X170.732 Y119.132 E3.74659 ; skirt
G1 X168.105 Y122.882 E3.79192 ; skirt
G1 X164.866 Y126.118 E3.83725 ; skirt
G1 X161.115 Y128.743 E3.88258 ; skirt
G1 X156.964 Y130.675 E3.92790 ; skirt
G1 X152.541 Y131.857 E3.97323 ; skirt
G1 X148.313 Y132.251 E4.01527 ; skirt
G1 X64.313 Y133.251 E4.84695 ; skirt
G1 X52.000 Y133.253 E4.96885 ; skirt
G1 X47.439 Y132.854 E5.01418 ; skirt
G1 X43.017 Y131.668 E5.05950 ; skirt
G1 X38.868 Y129.732 E5.10483 ; skirt
G1 X35.118 Y127.105 E5.15016 ; skirt
G1 X31.882 Y123.866 E5.19549 ; skirt
G1 X29.257 Y120.115 E5.24082 ; skirt
G1 X27.325 Y115.964 E5.28614 ; skirt
G1 X26.143 Y111.541 E5.33147 ; skirt
G1 X25.747 Y107.000 E5.37660 ; skirt
G1 X25.747 Y93.150 E5.51372 ; skirt
G1 X26.146 Y88.589 E5.55904 ; skirt
G1 X27.332 Y84.167 E5.60437 ; skirt
G1 X29.268 Y80.018 E5.64970 ; skirt
G1 X31.895 Y76.268 E5.69503 ; skirt
G1 X35.134 Y73.032 E5.74036 ; skirt
G1 X38.848 Y70.433 E5.78524 ; skirt
G1 X38.997 Y70.647 F7800.000 ; move to first skirt point
G1 X39.124 Y70.559 E5.78677 F1200.000 ; skirt
G1 X43.265 Y68.658 E5.83188 ; skirt
G1 X47.675 Y67.510 E5.87699 ; skirt
G1 X52.000 Y67.148 E5.91996 ; skirt
G1 X64.333 Y67.150 E6.04206 ; skirt
G1 X148.333 Y68.225 E6.87375 F1200.000 ; skirt
G1 X152.866 Y68.682 E6.91886 ; skirt
G1 X157.250 Y69.924 E6.96397 ; skirt
G1 X161.350 Y71.911 E7.00908 ; skirt
G1 X165.041 Y74.584 E7.05419 ; skirt
G1 X168.207 Y77.861 E7.09930 ; skirt
G1 X170.754 Y81.639 E7.14441 ; skirt
G1 X172.601 Y85.804 E7.18952 ; skirt
G1 X173.693 Y90.228 E7.23463 ; skirt
G1 X174.002 Y94.225 E7.27432 ; skirt
G1 X174.002 Y106.000 E7.39090 ; skirt
G1 X173.603 Y110.539 E7.43601 ; skirt
G1 X172.418 Y114.939 E7.48112 ; skirt
G1 X170.483 Y119.064 E7.52623 ; skirt
G1 X167.857 Y122.788 E7.57134 ; skirt
G1 X164.622 Y125.996 E7.61645 ; skirt
G1 X160.876 Y128.591 E7.66156 ; skirt
G1 X156.735 Y130.492 E7.70667 ; skirt
G1 X152.325 Y131.640 E7.75178 ; skirt
G1 X148.310 Y132.001 E7.79170 ; skirt
G1 X64.310 Y133.001 E8.62337 ; skirt
G1 X52.000 Y133.002 E8.74524 ; skirt
G1 X47.461 Y132.603 E8.79035 ; skirt
G1 X43.061 Y131.418 E8.83546 ; skirt
G1 X38.936 Y129.483 E8.88057 ; skirt
G1 X35.212 Y126.857 E8.92568 ; skirt
G1 X32.004 Y123.622 E8.97080 ; skirt
G1 X29.409 Y119.876 E9.01591 ; skirt
G1 X27.508 Y115.735 E9.06102 ; skirt
G1 X26.360 Y111.325 E9.10613 ; skirt
G1 X25.998 Y107.000 E9.14910 ; skirt
G1 X25.998 Y93.150 E9.28622 ; skirt
G1 X26.397 Y88.611 E9.33133 ; skirt
G1 X27.582 Y84.211 E9.37644 ; skirt
G1 X29.517 Y80.086 E9.42155 ; skirt
G1 X32.143 Y76.362 E9.46666 ; skirt
G1 X35.378 Y73.154 E9.51177 ; skirt
G1 X38.960 Y70.673 E9.55490 ; skirt
G1 X39.107 Y70.888 F7800.000 ; move to first skirt point
G1 X39.363 Y70.712 E9.55797 F1200.000 ; skirt
G1 X43.494 Y68.843 E9.60287 ; skirt
G1 X47.890 Y67.728 E9.64776 ; skirt
G1 X52.000 Y67.398 E9.68858 ; skirt
G1 X64.330 Y67.400 E9.81065 ; skirt
G1 X148.330 Y68.475 E10.64234 F1200.000 ; skirt
G1 X152.841 Y68.932 E10.68723 ; skirt
G1 X157.202 Y70.173 E10.73212 ; skirt
G1 X161.278 Y72.160 E10.77701 ; skirt
G1 X164.942 Y74.831 E10.82190 ; skirt
G1 X168.081 Y78.104 E10.86680 ; skirt
G1 X170.598 Y81.876 E10.91169 ; skirt
G1 X172.413 Y86.031 E10.95658 ; skirt
G1 X173.472 Y90.440 E11.00147 ; skirt
G1 X173.752 Y94.225 E11.03905 ; skirt
G1 X173.752 Y106.000 E11.15562 ; skirt
G1 X173.353 Y110.517 E11.20051 ; skirt
G1 X172.167 Y114.894 E11.24541 ; skirt
G1 X170.233 Y118.995 E11.29030 ; skirt
G1 X167.609 Y122.693 E11.33519 ; skirt
G1 X164.377 Y125.874 E11.38008 ; skirt
G1 X160.637 Y128.438 E11.42497 ; skirt
G1 X156.506 Y130.307 E11.46987 ; skirt
G1 X152.110 Y131.422 E11.51476 ; skirt
G1 X148.307 Y131.750 E11.55256 ; skirt
G1 X64.307 Y132.750 E12.38424 ; skirt
G1 X52.000 Y132.752 E12.50607 ; skirt
G1 X47.483 Y132.353 E12.55097 ; skirt
G1 X43.106 Y131.167 E12.59586 ; skirt
G1 X39.005 Y129.233 E12.64075 ; skirt
G1 X35.307 Y126.609 E12.68564 ; skirt
G1 X32.126 Y123.377 E12.73053 ; skirt
G1 X29.562 Y119.637 E12.77543 ; skirt
G1 X27.693 Y115.506 E12.82032 ; skirt
G1 X26.578 Y111.110 E12.86521 ; skirt
G1 X26.248 Y107.000 E12.90604 ; skirt
G1 X26.248 Y93.150 E13.04315 ; skirt
G1 X26.647 Y88.633 E13.08805 ; skirt
G1 X27.833 Y84.256 E13.13294 ; skirt
G1 X29.767 Y80.155 E13.17783 ; skirt
G1 X32.391 Y76.457 E13.22272 ; skirt
G1 X35.623 Y73.276 E13.26762 ; skirt
G1 X39.070 Y70.913 E13.30899 ; skirt
G1 X39.216 Y71.128 F7800.000 ; move to first skirt point
G1 X39.601 Y70.866 E13.31361 F1200.000 ; skirt
G1 X43.723 Y69.029 E13.35828 ; skirt
G1 X48.104 Y67.948 E13.40295 ; skirt
G1 X52.000 Y67.649 E13.44164 ; skirt
G1 X64.326 Y67.651 E13.56367 ; skirt
G1 X148.326 Y68.726 E14.39536 F1200.000 ; skirt
G1 X152.815 Y69.183 E14.44003 ; skirt
G1 X157.154 Y70.423 E14.48470 ; skirt
G1 X161.206 Y72.409 E14.52938 ; skirt
G1 X164.844 Y75.078 E14.57405 ; skirt
G1 X167.955 Y78.347 E14.61872 ; skirt
G1 X170.441 Y82.112 E14.66340 ; skirt
G1 X172.225 Y86.257 E14.70807 ; skirt
G1 X173.250 Y90.652 E14.75274 ; skirt
G1 X173.501 Y94.225 E14.78821 ; skirt
G1 X173.501 Y106.000 E14.90478 ; skirt
G1 X173.102 Y110.495 E14.94945 ; skirt
G1 X171.917 Y114.849 E14.99413 ; skirt
G1 X169.983 Y118.925 E15.03880 ; skirt
G1 X167.361 Y122.598 E15.08347 ; skirt
G1 X164.132 Y125.750 E15.12815 ; skirt
G1 X160.399 Y128.284 E15.17282 ; skirt
G1 X156.277 Y130.121 E15.21749 ; skirt
G1 X151.896 Y131.202 E15.26216 ; skirt
G1 X148.304 Y131.499 E15.29785 ; skirt
G1 X64.304 Y132.499 E16.12953 ; skirt
G1 X52.000 Y132.501 E16.25134 ; skirt
G1 X47.505 Y132.102 E16.29601 ; skirt
G1 X43.151 Y130.917 E16.34068 ; skirt
G1 X39.075 Y128.983 E16.38536 ; skirt
G1 X35.402 Y126.361 E16.43003 ; skirt
G1 X32.250 Y123.132 E16.47470 ; skirt
G1 X29.716 Y119.399 E16.51938 ; skirt
G1 X27.879 Y115.277 E16.56405 ; skirt
G1 X26.798 Y110.896 E16.60872 ; skirt
G1 X26.499 Y107.000 E16.64741 ; skirt
G1 X26.499 Y93.150 E16.78453 ; skirt
G1 X26.898 Y88.655 E16.82920 ; skirt
G1 X28.083 Y84.301 E16.87387 ; skirt
G1 X30.017 Y80.225 E16.91854 ; skirt
G1 X32.639 Y76.552 E16.96322 ; skirt
G1 X35.868 Y73.400 E17.00789 ; skirt
G1 X39.178 Y71.153 E17.04750 ; skirt
G1 X39.323 Y71.368 F7800.000 ; move to first skirt point
G1 X39.839 Y71.020 E17.05367 F1200.000 ; skirt
G1 X43.951 Y69.217 E17.09812 ; skirt
G1 X48.317 Y68.169 E17.14257 ; skirt
G1 X52.000 Y67.899 E17.17913 ; skirt
G1 X64.323 Y67.901 E17.30113 ; skirt
G1 X148.323 Y68.976 E18.13282 F1200.000 ; skirt
G1 X152.790 Y69.433 E18.17727 ; skirt
G1 X157.105 Y70.673 E18.22172 ; skirt
G1 X161.133 Y72.658 E18.26617 ; skirt
G1 X164.745 Y75.325 E18.31063 ; skirt
G1 X167.828 Y78.590 E18.35508 ; skirt
G1 X170.283 Y82.349 E18.39953 ; skirt
G1 X172.035 Y86.483 E18.44398 ; skirt
G1 X173.026 Y90.862 E18.48844 ; skirt
G1 X173.251 Y94.225 E18.52180 ; skirt
G1 X173.251 Y106.000 E18.63838 ; skirt
G1 X172.851 Y110.472 E18.68283 ; skirt
G1 X171.666 Y114.803 E18.72728 ; skirt
G1 X169.733 Y118.856 E18.77173 ; skirt
G1 X167.113 Y122.502 E18.81618 ; skirt
G1 X163.888 Y125.626 E18.86064 ; skirt
G1 X160.161 Y128.130 E18.90509 ; skirt
G1 X156.049 Y129.933 E18.94954 ; skirt
G1 X151.683 Y130.981 E18.99399 ; skirt
G1 X148.301 Y131.249 E19.02758 ; skirt
G1 X64.301 Y132.249 E19.85926 ; skirt
G1 X52.000 Y132.251 E19.98104 ; skirt
G1 X47.528 Y131.851 E20.02549 ; skirt
G1 X43.197 Y130.666 E20.06994 ; skirt
G1 X39.144 Y128.733 E20.11439 ; skirt
G1 X35.498 Y126.113 E20.15885 ; skirt
G1 X32.374 Y122.888 E20.20330 ; skirt
G1 X29.870 Y119.161 E20.24775 ; skirt
G1 X28.067 Y115.049 E20.29220 ; skirt
G1 X27.019 Y110.683 E20.33666 ; skirt
G1 X26.749 Y107.000 E20.37321 ; skirt
G1 X26.749 Y93.150 E20.51033 ; skirt
G1 X27.149 Y88.678 E20.55478 ; skirt
G1 X28.334 Y84.347 E20.59924 ; skirt
G1 X30.267 Y80.294 E20.64369 ; skirt
G1 X32.887 Y76.648 E20.68814 ; skirt
G1 X36.112 Y73.524 E20.73259 ; skirt
G1 X39.285 Y71.393 E20.77043 ; skirt
G1 E18.77043 F2400.00000 ; retract
G92 E0 ; reset extrusion distance
G1 X52.393 Y98.041 F7800.000 ; move to first perimeter point
G1 E2.00000 F2400.00000 ; unretract
G1 X52.393 Y93.543 E2.04453 F1440.000 ; perimeter
G1 X63.607 Y93.543 E2.15555 ; perimeter
G1 X63.607 Y106.607 E2.28488 ; perimeter
G1 X52.393 Y106.607 E2.39590 F1440.000 ; perimeter
G1 X52.393 Y98.086 E2.48026 ; perimeter
G1 X52.150 Y98.086 F7800.000 ; move to first perimeter point
G1 X52.150 Y93.300 E2.52481 F720.000 ; perimeter
G1 X63.850 Y93.300 E2.63371 ; perimeter
G1 X63.850 Y106.850 E2.75983 ; perimeter
G1 X52.150 Y106.850 E2.86873 F720.000 ; perimeter
G1 X52.150 Y98.131 E2.94988 ; perimeter
G1 X52.410 Y97.936 F7800.000 ; move inwards before travel
G1 X52.533 Y106.321 F7800.000 ; move to first infill point
G1 X52.679 Y106.467 E2.95193 F720.000 ; infill
G1 X53.034 Y106.467 E2.95545 ; infill
G1 X52.533 Y105.966 E2.96248 ; infill
G1 X52.533 Y105.611 E2.96599 ; infill
G1 X53.389 Y106.467 E2.97800 ; infill
G1 X53.744 Y106.467 E2.98152 ; infill
G1 X52.533 Y105.256 E2.99850 ; infill
G1 X52.533 Y104.901 E3.00202 ; infill
G1 X54.099 Y106.467 E3.02397 ; infill
G1 X54.454 Y106.467 E3.02749 ; infill
G1 X52.533 Y104.546 E3.05443 ; infill
G1 X52.533 Y104.191 E3.05795 ; infill
G1 X54.809 Y106.467 E3.08986 ; infill
G1 X55.164 Y106.467 E3.09337 ; infill
G1 X52.533 Y103.836 E3.13026 ; infill
G1 X52.533 Y103.481 E3.13378 ; infill
G1 X55.519 Y106.467 E3.17564 ; infill
G1 X55.874 Y106.467 E3.17916 ; infill
G1 X52.533 Y103.126 E3.22600 ; infill
G1 X52.533 Y102.771 E3.22952 ; infill
G1 X56.229 Y106.467 E3.28133 ; infill
G1 X56.584 Y106.467 E3.28485 ; infill
G1 X52.533 Y102.416 E3.34165 ; infill
G1 X52.533 Y102.062 E3.34516 ; infill
G1 X56.938 Y106.467 E3.40693 ; infill
G1 X57.293 Y106.467 E3.41045 ; infill
G1 X52.533 Y101.707 E3.47720 ; infill
G1 X52.533 Y101.352 E3.48072 ; infill
G1 X57.648 Y106.467 E3.55244 ; infill
G1 X58.003 Y106.467 E3.55596 ; infill
G1 X52.533 Y100.997 E3.63266 ; infill
G1 X52.533 Y100.642 E3.63617 ; infill
G1 X58.358 Y106.467 E3.71785 ; infill
G1 X58.713 Y106.467 E3.72137 ; infill
G1 X52.533 Y100.287 E3.80802 ; infill
G1 X52.533 Y99.932 E3.81154 ; infill
G1 X59.068 Y106.467 E3.90317 ; infill
G1 X59.423 Y106.467 E3.90668 ; infill
G1 X52.533 Y99.577 E4.00329 ; infill
G1 X52.533 Y99.222 E4.00681 ; infill
G1 X59.778 Y106.467 E4.10839 ; infill
G1 X60.133 Y106.467 E4.11191 ; infill
G1 X52.533 Y98.867 E4.21846 ; infill
G1 X52.533 Y98.512 E4.22198 ; infill
G1 X60.488 Y106.467 E4.33352 ; infill
G1 X60.843 Y106.467 E4.33703 ; infill
G1 X52.533 Y98.157 E4.45354 ; infill
G1 X52.533 Y97.802 E4.45706 ; infill
G1 X61.198 Y106.467 E4.57855 ; infill
G1 X61.553 Y106.467 E4.58207 ; infill
G1 X52.533 Y97.447 E4.70853 ; infill
G1 X52.533 Y97.093 E4.71205 ; infill
G1 X61.907 Y106.467 E4.84349 ; infill
G1 X62.262 Y106.467 E4.84701 ; infill
G1 X52.533 Y96.738 E4.98342 ; infill
G1 X52.533 Y96.383 E4.98694 ; infill
G1 X62.617 Y106.467 E5.12833 ; infill
G1 X62.972 Y106.467 E5.13185 ; infill
G1 X52.533 Y96.028 E5.27822 ; infill
G1 X52.533 Y95.673 E5.28174 ; infill
G1 X63.327 Y106.467 E5.43309 ; infill
G1 X63.467 Y106.252 E5.43563 ; infill
G1 X52.533 Y95.318 E5.58894 ; infill
G1 X52.533 Y94.963 E5.59245 ; infill
G1 X63.467 Y105.897 E5.74576 ; infill
G1 X63.467 Y105.542 E5.74928 ; infill
G1 X52.533 Y94.608 E5.90258 ; infill
G1 X52.533 Y94.253 E5.90610 ; infill
G1 X63.467 Y105.187 E6.05941 ; infill
G1 X63.467 Y104.832 E6.06293 ; infill
G1 X52.533 Y93.898 E6.21623 ; infill
G1 X52.673 Y93.683 E6.21878 ; infill
G1 X63.467 Y104.477 E6.37012 ; infill
G1 X63.467 Y104.122 E6.37364 ; infill
G1 X53.028 Y93.683 E6.52001 ; infill
G1 X53.383 Y93.683 E6.52353 ; infill
G1 X63.467 Y103.767 E6.66492 ; infill
G1 X63.467 Y103.412 E6.66844 ; infill
G1 X53.738 Y93.683 E6.80486 ; infill
G1 X54.092 Y93.683 E6.80838 ; infill
G1 X63.467 Y103.058 E6.93982 ; infill
G1 X63.467 Y102.703 E6.94334 ; infill
G1 X54.447 Y93.683 E7.06980 ; infill
G1 X54.802 Y93.683 E7.07332 ; infill
G1 X63.467 Y102.348 E7.19480 ; infill
G1 X63.467 Y101.993 E7.19832 ; infill
G1 X55.157 Y93.683 E7.31483 ; infill
G1 X55.512 Y93.683 E7.31835 ; infill
G1 X63.467 Y101.638 E7.42989 ; infill
G1 X63.467 Y101.283 E7.43341 ; infill
G1 X55.867 Y93.683 E7.53996 ; infill
G1 X56.222 Y93.683 E7.54348 ; infill
G1 X63.467 Y100.928 E7.64506 ; infill
G1 X63.467 Y100.573 E7.64858 ; infill
G1 X56.577 Y93.683 E7.74519 ; infill
G1 X56.932 Y93.683 E7.74871 ; infill
G1 X63.467 Y100.218 E7.84033 ; infill
G1 X63.467 Y99.863 E7.84385 ; infill
G1 X57.287 Y93.683 E7.93050 ; infill
G1 X57.642 Y93.683 E7.93402 ; infill
G1 X63.467 Y99.508 E8.01570 ; infill
G1 X63.467 Y99.153 E8.01922 ; infill
G1 X57.997 Y93.683 E8.09592 ; infill
G1 X58.352 Y93.683 E8.09943 ; infill
G1 X63.467 Y98.798 E8.17116 ; infill
G1 X63.467 Y98.443 E8.17468 ; infill
G1 X58.707 Y93.683 E8.24142 ; infill
G1 X59.062 Y93.683 E8.24494 ; infill
G1 X63.467 Y98.088 E8.30671 ; infill
G1 X63.467 Y97.734 E8.31023 ; infill
G1 X59.416 Y93.683 E8.36702 ; infill
G1 X59.771 Y93.683 E8.37054 ; infill
G1 X63.467 Y97.379 E8.42236 ; infill
G1 X63.467 Y97.024 E8.42588 ; infill
G1 X60.126 Y93.683 E8.47272 ; infill
G1 X60.481 Y93.683 E8.47623 ; infill
G1 X63.467 Y96.669 E8.51810 ; infill
G1 X63.467 Y96.314 E8.52162 ; infill
G1 X60.836 Y93.683 E8.55850 ; infill
G1 X61.191 Y93.683 E8.56202 ; infill
G1 X63.467 Y95.959 E8.59393 ; infill
G1 X63.467 Y95.604 E8.59745 ; infill
G1 X61.546 Y93.683 E8.62439 ; infill
G1 X61.901 Y93.683 E8.62790 ; infill
G1 X63.467 Y95.249 E8.64986 ; infill
G1 X63.467 Y94.894 E8.65338 ; infill
G1 X62.256 Y93.683 E8.67036 ; infill
G1 X62.611 Y93.683 E8.67388 ; infill
G1 X63.467 Y94.539 E8.68589 ; infill
G1 X63.467 Y94.184 E8.68940 ; infill
G1 X62.966 Y93.683 E8.69643 ; infill
G1 X63.321 Y93.683 E8.69995 ; infill
G1 X63.467 Y93.829 E8.70200 ; infill
G1 E6.70200 F2400.00000 ; retract
G92 E0 ; reset extrusion distance
G1 X73.063 Y105.607 F7800.000 ; move to first perimeter point
G1 E2.00000 F2400.00000 ; unretract
G1 X66.393 Y105.607 E2.06604 F1440.000 ; perimeter
G1 X66.393 Y94.618 E2.17483 ; perimeter
G1 X77.607 Y94.618 E2.28585 ; perimeter
G1 X77.607 Y105.607 E2.39464 ; perimeter
G1 X73.108 Y105.607 E2.43917 F1440.000 ; perimeter
G1 X73.108 Y105.850 F7800.000 ; move to first perimeter point
G1 X66.150 Y105.850 E2.50394 F720.000 ; perimeter
G1 X66.150 Y94.375 E2.61074 ; perimeter
G1 X77.850 Y94.375 E2.71964 ; perimeter
G1 X77.850 Y105.850 E2.82645 ; perimeter
G1 X73.153 Y105.850 E2.87017 F720.000 ; perimeter
G1 X72.958 Y105.590 F7800.000 ; move inwards before travel
G1 X66.533 Y105.321 F7800.000 ; move to first infill point
G1 X66.679 Y105.467 E2.87222 F720.000 ; infill
G1 X67.035 Y105.467 E2.87576 ; infill
G1 X66.533 Y104.965 E2.88282 ; infill
G1 X66.533 Y104.609 E2.88635 ; infill
