; generated by Slic3r 1.2.9 on 2021-01-11 at 20:49:19

; external perimeters extrusion width = 0.30mm
; perimeters extrusion width = 0.40mm
; infill extrusion width = 0.40mm
; solid infill extrusion width = 0.40mm
; top infill extrusion width = 0.40mm

M107 ; disable fan
M42 P45 S150 ; Turn on electronics fan

M140 S60 ; Set Bed first_layer_bed_temperature
M104 S190 T0 ; Set Hotend first_layer_temperature_0

G1 Z5 F5000 ; lift nozzle
G28 ; home all axes
G1 Z5 F5000 ; lift nozzle

M109 R190 T0 ; Wait for Hotend first_layer_temperature_0


G21 ; set units to millimeters
G90 ; use absolute coordinates
M82 ; use absolute distances for extrusion
G92 E0 ; reset extrusion distance
G1 E-2.00000 F2400.00000 ; retract
G92 E0 ; reset extrusion distance
G1 Z0.300 F7800.000 ; move to next layer (0)
G1 X75.788 Y74.732 F7800.000 ; move to first skirt point
G1 E2.00000 F2400.00000 ; unretract
G1 X76.644 Y73.865 E2.01207 F1200.000 ; skirt
G1 X80.407 Y71.181 E2.05783 ; skirt
G1 X84.576 Y69.185 E2.10359 ; skirt
G1 X89.026 Y67.937 E2.14934 ; skirt
G1 X94.000 Y67.471 E2.19880 ; skirt
G1 X106.000 Y67.471 E2.31761 ; skirt
G1 X110.605 Y67.870 E2.36337 ; skirt
G1 X115.072 Y69.056 E2.40912 F1200.000 ; skirt
G1 X119.269 Y70.993 E2.45488 ; skirt
G1 X123.069 Y73.623 E2.50064 ; skirt
G1 X126.360 Y76.869 E2.54640 ; skirt
G1 X129.044 Y80.632 E2.59216 ; skirt
G1 X131.040 Y84.801 E2.63792 ; skirt
G1 X132.288 Y89.251 E2.68368 ; skirt
G1 X132.754 Y94.225 E2.73314 ; skirt
G1 X132.754 Y106.000 E2.84971 ; skirt
G1 X132.355 Y110.605 E2.89547 ; skirt
G1 X131.169 Y115.072 E2.94123 ; skirt
G1 X129.232 Y119.269 E2.98699 ; skirt
G1 X126.602 Y123.069 E3.03275 ; skirt
G1 X123.356 Y126.360 E3.07851 ; skirt
G1 X119.593 Y129.044 E3.12427 ; skirt
G1 X115.424 Y131.040 E3.17003 ; skirt
G1 X110.974 Y132.288 E3.21579 ; skirt
G1 X106.000 Y132.754 E3.26525 ; skirt
G1 X94.000 Y132.754 E3.38405 ; skirt
G1 X89.395 Y132.355 E3.42981 ; skirt
G1 X84.928 Y131.169 E3.47557 ; skirt
G1 X80.731 Y129.232 E3.52133 ; skirt
G1 X76.931 Y126.602 E3.56709 ; skirt
G1 X73.640 Y123.356 E3.61285 ; skirt
G1 X70.956 Y119.593 E3.65861 ; skirt
G1 X68.960 Y115.424 E3.70437 ; skirt
G1 X67.712 Y110.974 E3.75013 ; skirt
G1 X67.246 Y106.000 E3.79958 ; skirt
G1 X67.246 Y94.225 E3.91616 ; skirt
G1 X67.645 Y89.620 E3.96192 ; skirt
G1 X68.831 Y85.153 E4.00768 ; skirt
G1 X70.768 Y80.956 E4.05344 ; skirt
G1 X73.398 Y77.156 E4.09920 ; skirt
G1 X75.756 Y74.764 E4.13244 ; skirt
G1 X75.937 Y74.944 F7800.000 ; move to first skirt point
G1 X76.889 Y73.985 E4.14582 F1200.000 ; skirt
G1 X80.646 Y71.331 E4.19136 ; skirt
G1 X84.806 Y69.367 E4.23691 ; skirt
G1 X89.243 Y68.152 E4.28245 ; skirt
G1 X94.000 Y67.721 E4.32974 ; skirt
G1 X106.000 Y67.721 E4.44854 ; skirt
G1 X110.583 Y68.121 E4.49409 ; skirt
G1 X115.028 Y69.306 E4.53963 F1200.000 ; skirt
G1 X119.201 Y71.243 E4.58518 ; skirt
G1 X122.976 Y73.872 E4.63072 ; skirt
G1 X126.240 Y77.114 E4.67626 ; skirt
G1 X128.894 Y80.871 E4.72181 ; skirt
G1 X130.858 Y85.031 E4.76735 ; skirt
G1 X132.073 Y89.468 E4.81290 ; skirt
G1 X132.504 Y94.225 E4.86018 ; skirt
G1 X132.504 Y106.000 E4.97676 ; skirt
G1 X132.104 Y110.583 E5.02230 ; skirt
G1 X130.919 Y115.028 E5.06785 ; skirt
G1 X128.982 Y119.201 E5.11339 ; skirt
G1 X126.353 Y122.976 E5.15894 ; skirt
G1 X123.111 Y126.240 E5.20448 ; skirt
G1 X119.354 Y128.894 E5.25002 ; skirt
G1 X115.194 Y130.858 E5.29557 ; skirt
G1 X110.757 Y132.073 E5.34111 ; skirt
G1 X106.000 Y132.504 E5.38840 ; skirt
G1 X94.000 Y132.504 E5.50720 ; skirt
G1 X89.417 Y132.104 E5.55275 ; skirt
G1 X84.972 Y130.919 E5.59829 ; skirt
G1 X80.799 Y128.982 E5.64384 ; skirt
G1 X77.024 Y126.353 E5.68938 ; skirt
G1 X73.760 Y123.111 E5.73493 ; skirt
G1 X71.106 Y119.354 E5.78047 ; skirt
G1 X69.142 Y115.194 E5.82601 ; skirt
G1 X67.927 Y110.757 E5.87156 ; skirt
G1 X67.496 Y106.000 E5.91885 ; skirt
G1 X67.496 Y94.225 E6.03542 ; skirt
G1 X67.896 Y89.642 E6.08097 ; skirt
G1 X69.081 Y85.197 E6.12651 ; skirt
G1 X71.018 Y81.024 E6.17205 ; skirt
G1 X73.647 Y77.249 E6.21760 ; skirt
G1 X75.905 Y74.976 E6.24932 ; skirt
G1 X76.084 Y75.155 F7800.000 ; move to first skirt point
G1 X77.134 Y74.107 E6.26401 F1200.000 ; skirt
G1 X80.885 Y71.482 E6.30934 ; skirt
G1 X85.036 Y69.550 E6.35466 ; skirt
G1 X89.459 Y68.368 E6.39999 ; skirt
G1 X94.000 Y67.972 E6.44512 ; skirt
G1 X106.000 Y67.972 E6.56392 ; skirt
G1 X110.561 Y68.371 E6.60925 ; skirt
G1 X114.983 Y69.557 E6.65458 F1200.000 ; skirt
G1 X119.132 Y71.493 E6.69990 ; skirt
G1 X122.882 Y74.120 E6.74523 ; skirt
G1 X126.118 Y77.359 E6.79056 ; skirt
G1 X128.743 Y81.110 E6.83589 ; skirt
G1 X130.675 Y85.261 E6.88122 ; skirt
G1 X131.857 Y89.684 E6.92654 ; skirt
G1 X132.253 Y94.225 E6.97167 ; skirt
G1 X132.253 Y106.000 E7.08825 ; skirt
G1 X131.854 Y110.561 E7.13357 ; skirt
G1 X130.668 Y114.983 E7.17890 ; skirt
G1 X128.732 Y119.132 E7.22423 ; skirt
G1 X126.105 Y122.882 E7.26956 ; skirt
G1 X122.866 Y126.118 E7.31489 ; skirt
G1 X119.115 Y128.743 E7.36021 ; skirt
G1 X114.964 Y130.675 E7.40554 ; skirt
G1 X110.541 Y131.857 E7.45087 ; skirt
G1 X106.000 Y132.253 E7.49600 ; skirt
G1 X94.000 Y132.253 E7.61480 ; skirt
G1 X89.439 Y131.854 E7.66013 ; skirt
G1 X85.017 Y130.668 E7.70545 ; skirt
G1 X80.868 Y128.732 E7.75078 ; skirt
G1 X77.118 Y126.105 E7.79611 ; skirt
G1 X73.882 Y122.866 E7.84144 ; skirt
G1 X71.257 Y119.115 E7.88677 ; skirt
G1 X69.325 Y114.964 E7.93209 ; skirt
G1 X68.143 Y110.541 E7.97742 ; skirt
G1 X67.747 Y106.000 E8.02255 ; skirt
G1 X67.747 Y94.225 E8.13912 ; skirt
G1 X68.146 Y89.664 E8.18445 ; skirt
G1 X69.332 Y85.242 E8.22978 ; skirt
G1 X71.268 Y81.093 E8.27511 ; skirt
G1 X73.895 Y77.343 E8.32043 ; skirt
G1 X76.052 Y75.187 E8.35063 ; skirt
G1 X76.231 Y75.367 F7800.000 ; move to first skirt point
G1 X77.378 Y74.229 E8.36663 F1200.000 ; skirt
G1 X81.124 Y71.634 E8.41174 ; skirt
G1 X85.265 Y69.733 E8.45685 ; skirt
G1 X89.675 Y68.585 E8.50196 ; skirt
G1 X94.000 Y68.223 E8.54494 ; skirt
G1 X106.000 Y68.223 E8.66374 ; skirt
G1 X110.539 Y68.622 E8.70885 ; skirt
G1 X114.939 Y69.807 E8.75396 F1200.000 ; skirt
G1 X119.064 Y71.742 E8.79907 ; skirt
G1 X122.788 Y74.368 E8.84418 ; skirt
G1 X125.996 Y77.603 E8.88929 ; skirt
G1 X128.591 Y81.349 E8.93440 ; skirt
G1 X130.492 Y85.490 E8.97951 ; skirt
G1 X131.640 Y89.900 E9.02462 ; skirt
G1 X132.002 Y94.225 E9.06760 ; skirt
G1 X132.002 Y106.000 E9.18417 ; skirt
G1 X131.603 Y110.539 E9.22928 ; skirt
G1 X130.418 Y114.939 E9.27439 ; skirt
G1 X128.483 Y119.064 E9.31950 ; skirt
G1 X125.857 Y122.788 E9.36461 ; skirt
G1 X122.622 Y125.996 E9.40972 ; skirt
G1 X118.876 Y128.591 E9.45484 ; skirt
G1 X114.735 Y130.492 E9.49995 ; skirt
G1 X110.325 Y131.640 E9.54506 ; skirt
G1 X106.000 Y132.002 E9.58803 ; skirt
G1 X94.000 Y132.002 E9.70683 ; skirt
G1 X89.461 Y131.603 E9.75194 ; skirt
G1 X85.061 Y130.418 E9.79705 ; skirt
G1 X80.936 Y128.483 E9.84216 ; skirt
G1 X77.212 Y125.857 E9.88727 ; skirt
G1 X74.004 Y122.622 E9.93238 ; skirt
G1 X71.409 Y118.876 E9.97749 ; skirt
G1 X69.508 Y114.735 E10.02261 ; skirt
G1 X68.360 Y110.325 E10.06772 ; skirt
G1 X67.998 Y106.000 E10.11069 ; skirt
G1 X67.998 Y94.225 E10.22726 ; skirt
G1 X68.397 Y89.686 E10.27237 ; skirt
G1 X69.582 Y85.286 E10.31748 ; skirt
G1 X71.517 Y81.161 E10.36259 ; skirt
G1 X74.143 Y77.437 E10.40771 ; skirt
G1 X76.199 Y75.399 E10.43637 ; skirt
G1 X76.376 Y75.579 F7800.000 ; move to first skirt point
G1 X77.623 Y74.351 E10.45369 F1200.000 ; skirt
G1 X81.363 Y71.787 E10.49858 ; skirt
G1 X85.494 Y69.918 E10.54348 ; skirt
G1 X89.890 Y68.803 E10.58837 ; skirt
G1 X94.000 Y68.473 E10.62919 ; skirt
G1 X106.000 Y68.473 E10.74800 ; skirt
G1 X110.517 Y68.872 E10.79289 ; skirt
G1 X114.894 Y70.058 E10.83778 F1200.000 ; skirt
G1 X118.995 Y71.992 E10.88267 ; skirt
G1 X122.693 Y74.616 E10.92756 ; skirt
G1 X125.874 Y77.848 E10.97246 ; skirt
G1 X128.438 Y81.588 E11.01735 ; skirt
G1 X130.307 Y85.719 E11.06224 ; skirt
G1 X131.422 Y90.115 E11.10713 ; skirt
G1 X131.752 Y94.225 E11.14796 ; skirt
G1 X131.752 Y106.000 E11.26453 ; skirt
G1 X131.353 Y110.517 E11.30943 ; skirt
G1 X130.167 Y114.894 E11.35432 ; skirt
G1 X128.233 Y118.995 E11.39921 ; skirt
G1 X125.609 Y122.693 E11.44410 ; skirt
G1 X122.377 Y125.874 E11.48900 ; skirt
G1 X118.637 Y128.438 E11.53389 ; skirt
G1 X114.506 Y130.307 E11.57878 ; skirt
G1 X110.110 Y131.422 E11.62367 ; skirt
G1 X106.000 Y131.752 E11.66450 ; skirt
G1 X94.000 Y131.752 E11.78330 ; skirt
G1 X89.483 Y131.353 E11.82819 ; skirt
G1 X85.106 Y130.167 E11.87308 ; skirt
G1 X81.005 Y128.233 E11.91798 ; skirt
G1 X77.307 Y125.609 E11.96287 ; skirt
G1 X74.126 Y122.377 E12.00776 ; skirt
G1 X71.562 Y118.637 E12.05265 ; skirt
G1 X69.693 Y114.506 E12.09755 ; skirt
G1 X68.578 Y110.110 E12.14244 ; skirt
G1 X68.248 Y106.000 E12.18326 ; skirt
G1 X68.248 Y94.225 E12.29984 ; skirt
G1 X68.647 Y89.708 E12.34473 ; skirt
G1 X69.833 Y85.331 E12.38962 ; skirt
G1 X71.767 Y81.230 E12.43452 ; skirt
G1 X74.391 Y77.532 E12.47941 ; skirt
G1 X76.344 Y75.610 E12.50653 ; skirt
G1 X76.520 Y75.791 F7800.000 ; move to first skirt point
G1 X77.868 Y74.475 E12.52518 F1200.000 ; skirt
G1 X81.601 Y71.941 E12.56985 ; skirt
G1 X85.723 Y70.104 E12.61452 ; skirt
G1 X90.104 Y69.023 E12.65920 ; skirt
G1 X94.000 Y68.724 E12.69788 ; skirt
G1 X106.000 Y68.724 E12.81669 ; skirt
G1 X110.495 Y69.123 E12.86136 ; skirt
G1 X114.849 Y70.308 E12.90603 F1200.000 ; skirt
G1 X118.925 Y72.242 E12.95071 ; skirt
G1 X122.598 Y74.864 E12.99538 ; skirt
G1 X125.750 Y78.093 E13.04005 ; skirt
G1 X128.284 Y81.826 E13.08472 ; skirt
G1 X130.121 Y85.948 E13.12940 ; skirt
G1 X131.202 Y90.329 E13.17407 ; skirt
G1 X131.501 Y94.225 E13.21276 ; skirt
G1 X131.501 Y106.000 E13.32933 ; skirt
G1 X131.102 Y110.495 E13.37400 ; skirt
G1 X129.917 Y114.849 E13.41868 ; skirt
G1 X127.983 Y118.925 E13.46335 ; skirt
G1 X125.361 Y122.598 E13.50802 ; skirt
G1 X122.132 Y125.750 E13.55270 ; skirt
G1 X118.399 Y128.284 E13.59737 ; skirt
G1 X114.277 Y130.121 E13.64204 ; skirt
G1 X109.896 Y131.202 E13.68671 ; skirt
G1 X106.000 Y131.501 E13.72540 ; skirt
G1 X94.000 Y131.501 E13.84420 ; skirt
G1 X89.505 Y131.102 E13.88888 ; skirt
G1 X85.151 Y129.917 E13.93355 ; skirt
G1 X81.075 Y127.983 E13.97822 ; skirt
G1 X77.402 Y125.361 E14.02289 ; skirt
G1 X74.250 Y122.132 E14.06757 ; skirt
G1 X71.716 Y118.399 E14.11224 ; skirt
G1 X69.879 Y114.277 E14.15691 ; skirt
G1 X68.798 Y109.896 E14.20159 ; skirt
G1 X68.499 Y106.000 E14.24027 ; skirt
G1 X68.499 Y94.225 E14.35685 ; skirt
G1 X68.898 Y89.730 E14.40152 ; skirt
G1 X70.083 Y85.376 E14.44619 ; skirt
G1 X72.017 Y81.300 E14.49087 ; skirt
G1 X74.639 Y77.627 E14.53554 ; skirt
G1 X76.488 Y75.822 E14.56112 ; skirt
G1 X76.663 Y76.003 F7800.000 ; move to first skirt point
G1 X78.112 Y74.599 E14.58110 F1200.000 ; skirt
G1 X81.839 Y72.095 E14.62555 ; skirt
G1 X85.951 Y70.292 E14.67000 ; skirt
G1 X90.317 Y69.244 E14.71445 ; skirt
G1 X94.000 Y68.974 E14.75101 ; skirt
G1 X106.000 Y68.974 E14.86981 ; skirt
G1 X110.472 Y69.374 E14.91426 ; skirt
G1 X114.803 Y70.559 E14.95872 F1200.000 ; skirt
G1 X118.856 Y72.492 E15.00317 ; skirt
G1 X122.502 Y75.112 E15.04762 ; skirt
G1 X125.626 Y78.337 E15.09207 ; skirt
G1 X128.130 Y82.064 E15.13653 ; skirt
G1 X129.933 Y86.176 E15.18098 ; skirt
G1 X130.981 Y90.542 E15.22543 ; skirt
G1 X131.251 Y94.225 E15.26199 ; skirt
G1 X131.251 Y106.000 E15.37856 ; skirt
G1 X130.851 Y110.472 E15.42301 ; skirt
G1 X129.666 Y114.803 E15.46747 ; skirt
G1 X127.733 Y118.856 E15.51192 ; skirt
G1 X125.113 Y122.502 E15.55637 ; skirt
G1 X121.888 Y125.626 E15.60082 ; skirt
G1 X118.161 Y128.130 E15.64528 ; skirt
G1 X114.049 Y129.933 E15.68973 ; skirt
G1 X109.683 Y130.981 E15.73418 ; skirt
G1 X106.000 Y131.251 E15.77074 ; skirt
G1 X94.000 Y131.251 E15.88954 ; skirt
G1 X89.528 Y130.851 E15.93399 ; skirt
G1 X85.197 Y129.666 E15.97844 ; skirt
G1 X81.144 Y127.733 E16.02290 ; skirt
G1 X77.498 Y125.113 E16.06735 ; skirt
G1 X74.374 Y121.888 E16.11180 ; skirt
G1 X71.870 Y118.161 E16.15625 ; skirt
G1 X70.067 Y114.049 E16.20071 ; skirt
G1 X69.019 Y109.683 E16.24516 ; skirt
G1 X68.749 Y106.000 E16.28171 ; skirt
G1 X68.749 Y94.225 E16.39829 ; skirt
G1 X69.149 Y89.753 E16.44274 ; skirt
G1 X70.334 Y85.422 E16.48719 ; skirt
G1 X72.267 Y81.369 E16.53165 ; skirt
G1 X74.887 Y77.723 E16.57610 ; skirt
G1 X76.631 Y76.034 E16.60013 ; skirt
G1 E14.60013 F2400.00000 ; retract
G92 E0 ; reset extrusion distance
G1 X97.916 Y105.607 F7800.000 ; move to first perimeter point
G1 E2.00000 F2400.00000 ; unretract
G1 X94.393 Y105.607 E2.03488 F1440.000 ; perimeter
G1 X94.393 Y94.618 E2.14367 ; perimeter
G1 X105.607 Y94.618 E2.25469 ; perimeter
G1 X105.607 Y105.607 E2.36348 ; perimeter
G1 X97.961 Y105.607 E2.43917 F1440.000 ; perimeter
G1 X97.961 Y105.850 F7800.000 ; move to first perimeter point
G1 X94.150 Y105.850 E2.47465 F720.000 ; perimeter
G1 X94.150 Y94.375 E2.58145 ; perimeter
G1 X105.850 Y94.375 E2.69035 ; perimeter
G1 X105.850 Y105.850 E2.79716 ; perimeter
G1 X98.006 Y105.850 E2.87017 F720.000 ; perimeter
G1 X97.811 Y105.590 F7800.000 ; move inwards before travel
G1 X97.995 Y105.394 F7800.000 ; move to first infill point
G1 X97.995 Y102.005 E2.90372 F720.000 ; infill
G1 X94.606 Y102.005 E2.93727 ; infill
G1 X94.606 Y102.256 F7800.000 ; move to first infill point
G1 X97.744 Y102.256 E2.96834 F720.000 ; infill
G1 X97.744 Y105.394 E2.99941 ; infill
G1 X97.494 Y105.394 F7800.000 ; move to first infill point
G1 X97.494 Y102.506 E3.02800 F720.000 ; infill
G1 X94.606 Y102.506 E3.05658 ; infill
G1 X94.606 Y102.757 F7800.000 ; move to first infill point
G1 X97.243 Y102.757 E3.08269 F720.000 ; infill
G1 X97.243 Y105.394 E3.10880 ; infill
G1 X96.993 Y105.394 F7800.000 ; move to first infill point
G1 X96.993 Y103.007 E3.13243 F720.000 ; infill
G1 X94.606 Y103.007 E3.15605 ; infill
G1 X94.606 Y103.258 F7800.000 ; move to first infill point
G1 X96.742 Y103.258 E3.17720 F720.000 ; infill
G1 X96.742 Y105.394 E3.19834 ; infill
G1 X96.491 Y105.394 F7800.000 ; move to first infill point
G1 X96.491 Y103.509 E3.21701 F720.000 ; infill
G1 X94.606 Y103.509 E3.23567 ; infill
G1 X94.606 Y103.759 F7800.000 ; move to first infill point
G1 X96.241 Y103.759 E3.25185 F720.000 ; infill
G1 X96.241 Y105.394 E3.26804 ; infill
G1 X95.990 Y105.394 F7800.000 ; move to first infill point
G1 X95.990 Y104.010 E3.28174 F720.000 ; infill
G1 X94.606 Y104.010 E3.29544 ; infill
G1 X94.606 Y104.261 F7800.000 ; move to first infill point
G1 X95.739 Y104.261 E3.30666 F720.000 ; infill
G1 X95.739 Y105.394 E3.31788 ; infill
G1 X95.489 Y105.394 F7800.000 ; move to first infill point
G1 X95.489 Y104.511 E3.32662 F720.000 ; infill
G1 X94.606 Y104.511 E3.33536 ; infill
G1 X94.606 Y104.762 F7800.000 ; move to first infill point
G1 X95.238 Y104.762 E3.34162 F720.000 ; infill
G1 X95.238 Y105.394 E3.34787 ; infill
G1 X94.988 Y105.394 F7800.000 ; move to first infill point
G1 X94.988 Y105.012 E3.35165 F720.000 ; infill
G1 X94.606 Y105.012 E3.35543 ; infill
G1 X94.606 Y105.263 F7800.000 ; move to first infill point
G1 X94.737 Y105.263 E3.35672 F720.000 ; infill
G1 X94.737 Y105.394 E3.35802 ; infill
G1 X98.115 Y105.394 F7800.000 ; move to first infill point
G1 X100.000 Y103.509 E3.38441 F720.000 ; infill
G1 X101.754 Y105.263 E3.40898 ; infill
G1 X101.754 Y101.754 E3.44371 ; infill
G1 X105.263 Y101.754 E3.47845 ; infill
G1 X103.509 Y100.000 E3.50301 ; infill
G1 X105.263 Y98.246 E3.52757 ; infill
G1 X101.754 Y98.246 E3.56231 ; infill
G1 X101.754 Y94.831 E3.59612 ; infill
G1 X101.660 Y94.831 F7800.000 ; move to first infill point
G1 X100.000 Y96.491 E3.61936 F720.000 ; infill
G1 X98.340 Y94.831 E3.64260 ; infill
G1 X98.246 Y94.831 F7800.000 ; move to first infill point
G1 X98.246 Y98.246 E3.67641 F720.000 ; infill
G1 X94.737 Y98.246 E3.71115 ; infill
G1 X96.491 Y100.000 E3.73571 ; infill
G1 X94.737 Y101.754 E3.76027 ; infill
G1 X98.246 Y101.754 E3.79501 ; infill
G1 X98.246 Y104.762 E3.82478 ; infill
G1 X100.000 Y103.007 E3.84934 ; infill
G1 X101.504 Y104.511 E3.87040 ; infill
G1 X101.504 Y101.504 E3.90017 ; infill
G1 X104.511 Y101.504 E3.92995 ; infill
G1 X103.007 Y100.000 E3.95100 ; infill
G1 X104.511 Y98.496 E3.97205 ; infill
G1 X101.504 Y98.496 E4.00183 ; infill
G1 X101.504 Y95.489 E4.03160 ; infill
