; generated by Slic3r 1.2.9 on 2021-01-08 at 21:43:49

; external perimeters extrusion width = 0.30mm
; perimeters extrusion width = 0.40mm
; infill extrusion width = 0.40mm
; solid infill extrusion width = 0.40mm
; top infill extrusion width = 0.40mm

M107 ; disable fan
M42 P45 S150 ; Turn on electronics fan

M140 S60 ; Set Bed first_layer_bed_temperature
M104 S190 T0 ; Set Hotend first_layer_temperature_0

G1 Z5 F5000 ; lift nozzle
G28 ; home all axes
G1 Z5 F5000 ; lift nozzle

M109 R190 T0 ; Wait for Hotend first_layer_temperature_0


G21 ; set units to millimeters
G90 ; use absolute coordinates
M82 ; use absolute distances for extrusion
G92 E0 ; reset extrusion distance
G1 E-2.00000 F2400.00000 ; retract
G92 E0 ; reset extrusion distance
G1 Z0.300 F7800.000 ; move to next layer (0)
G1 X88.120 Y85.999 F7800.000 ; move to first skirt point
G1 E2.00000 F2400.00000 ; unretract
G1 X90.447 Y84.601 E2.02687 F1200.000 ; skirt
G1 X94.000 Y83.892 E2.06274 ; skirt
G1 X106.000 Y83.892 E2.18154 ; skirt
G1 X108.685 Y84.290 E2.20841 ; skirt
G1 X111.139 Y85.449 E2.23528 F1200.000 ; skirt
G1 X113.151 Y87.270 E2.26216 ; skirt
G1 X114.549 Y89.597 E2.28903 ; skirt
G1 X115.258 Y93.150 E2.32490 ; skirt
G1 X115.258 Y107.000 E2.46201 ; skirt
G1 X114.860 Y109.685 E2.48888 ; skirt
G1 X113.701 Y112.139 E2.51576 ; skirt
G1 X111.880 Y114.151 E2.54263 ; skirt
G1 X109.553 Y115.549 E2.56950 ; skirt
G1 X106.000 Y116.258 E2.60537 ; skirt
G1 X94.000 Y116.258 E2.72417 ; skirt
G1 X91.315 Y115.860 E2.75104 ; skirt
G1 X88.861 Y114.701 E2.77791 ; skirt
G1 X86.849 Y112.880 E2.80478 ; skirt
G1 X85.451 Y110.553 E2.83165 ; skirt
G1 X84.742 Y107.000 E2.86752 ; skirt
G1 X84.742 Y93.150 E3.00464 ; skirt
G1 X85.140 Y90.465 E3.03151 ; skirt
G1 X86.299 Y88.011 E3.05838 ; skirt
G1 X88.090 Y86.032 E3.08481 ; skirt
G1 X88.284 Y86.211 F7800.000 ; move to first skirt point
G1 X88.365 Y86.123 E3.08599 F1200.000 ; skirt
G1 X90.679 Y84.777 E3.11249 ; skirt
G1 X94.000 Y84.143 E3.14597 ; skirt
G1 X106.000 Y84.143 E3.26477 ; skirt
G1 X108.647 Y84.540 E3.29127 ; skirt
G1 X111.061 Y85.699 E3.31777 F1200.000 ; skirt
G1 X113.027 Y87.515 E3.34428 ; skirt
G1 X114.373 Y89.829 E3.37078 ; skirt
G1 X115.007 Y93.150 E3.40425 ; skirt
G1 X115.007 Y107.000 E3.54137 ; skirt
G1 X114.610 Y109.647 E3.56787 ; skirt
G1 X113.451 Y112.061 E3.59437 ; skirt
G1 X111.635 Y114.027 E3.62088 ; skirt
G1 X109.321 Y115.373 E3.64738 ; skirt
G1 X106.000 Y116.007 E3.68085 ; skirt
G1 X94.000 Y116.007 E3.79966 ; skirt
G1 X91.353 Y115.610 E3.82616 ; skirt
G1 X88.939 Y114.451 E3.85266 ; skirt
G1 X86.973 Y112.635 E3.87916 ; skirt
G1 X85.627 Y110.321 E3.90566 ; skirt
G1 X84.993 Y107.000 E3.93914 ; skirt
G1 X84.993 Y93.150 E4.07626 ; skirt
G1 X85.390 Y90.503 E4.10276 ; skirt
G1 X86.549 Y88.089 E4.12926 ; skirt
G1 X88.253 Y86.244 E4.15413 ; skirt
G1 X88.444 Y86.424 F7800.000 ; move to first skirt point
G1 X88.609 Y86.249 E4.15651 F1200.000 ; skirt
G1 X90.910 Y84.956 E4.18264 ; skirt
G1 X94.000 Y84.393 E4.21374 ; skirt
G1 X106.000 Y84.393 E4.33254 ; skirt
G1 X108.609 Y84.791 E4.35867 ; skirt
G1 X110.981 Y85.948 E4.38480 F1200.000 ; skirt
G1 X112.901 Y87.759 E4.41093 ; skirt
G1 X114.194 Y90.060 E4.43706 ; skirt
G1 X114.757 Y93.150 E4.46815 ; skirt
G1 X114.757 Y107.000 E4.60527 ; skirt
G1 X114.359 Y109.609 E4.63140 ; skirt
G1 X113.202 Y111.981 E4.65753 ; skirt
G1 X111.391 Y113.901 E4.68365 ; skirt
G1 X109.090 Y115.194 E4.70978 ; skirt
G1 X106.000 Y115.757 E4.74088 ; skirt
G1 X94.000 Y115.757 E4.85968 ; skirt
G1 X91.391 Y115.359 E4.88581 ; skirt
G1 X89.019 Y114.202 E4.91194 ; skirt
G1 X87.099 Y112.391 E4.93807 ; skirt
G1 X85.806 Y110.090 E4.96420 ; skirt
G1 X85.243 Y107.000 E4.99529 ; skirt
G1 X85.243 Y93.150 E5.13241 ; skirt
G1 X85.641 Y90.541 E5.15854 ; skirt
G1 X86.798 Y88.169 E5.18467 ; skirt
G1 X88.413 Y86.457 E5.20797 ; skirt
G1 X88.601 Y86.638 F7800.000 ; move to first skirt point
G1 X88.853 Y86.378 E5.21156 F1200.000 ; skirt
G1 X91.140 Y85.139 E5.23731 ; skirt
G1 X94.000 Y84.644 E5.26604 ; skirt
G1 X106.000 Y84.644 E5.38484 ; skirt
G1 X108.570 Y85.041 E5.41059 ; skirt
G1 X110.900 Y86.197 E5.43634 F1200.000 ; skirt
G1 X112.772 Y88.003 E5.46209 ; skirt
G1 X114.011 Y90.290 E5.48784 ; skirt
G1 X114.506 Y93.150 E5.51658 ; skirt
G1 X114.506 Y107.000 E5.65370 ; skirt
G1 X114.109 Y109.570 E5.67945 ; skirt
G1 X112.953 Y111.900 E5.70520 ; skirt
G1 X111.147 Y113.772 E5.73095 ; skirt
G1 X108.860 Y115.011 E5.75670 ; skirt
G1 X106.000 Y115.506 E5.78543 ; skirt
G1 X94.000 Y115.506 E5.90424 ; skirt
G1 X91.430 Y115.109 E5.92999 ; skirt
G1 X89.100 Y113.953 E5.95574 ; skirt
G1 X87.228 Y112.147 E5.98149 ; skirt
G1 X85.989 Y109.860 E6.00724 ; skirt
G1 X85.494 Y107.000 E6.03597 ; skirt
G1 X85.494 Y93.150 E6.17309 ; skirt
G1 X85.891 Y90.580 E6.19884 ; skirt
G1 X87.047 Y88.250 E6.22459 ; skirt
G1 X88.570 Y86.671 E6.24631 ; skirt
G1 X88.756 Y86.854 F7800.000 ; move to first skirt point
G1 X89.097 Y86.508 E6.25111 F1200.000 ; skirt
G1 X91.369 Y85.325 E6.27648 ; skirt
G1 X94.000 Y84.894 E6.30287 ; skirt
G1 X106.000 Y84.894 E6.42167 ; skirt
G1 X108.531 Y85.292 E6.44704 ; skirt
G1 X110.818 Y86.446 E6.47240 F1200.000 ; skirt
G1 X112.642 Y88.247 E6.49777 ; skirt
G1 X113.825 Y90.519 E6.52314 ; skirt
G1 X114.256 Y93.150 E6.54953 ; skirt
G1 X114.256 Y107.000 E6.68665 ; skirt
G1 X113.858 Y109.531 E6.71201 ; skirt
G1 X112.704 Y111.818 E6.73738 ; skirt
G1 X110.903 Y113.642 E6.76274 ; skirt
G1 X108.631 Y114.825 E6.78811 ; skirt
G1 X106.000 Y115.256 E6.81450 ; skirt
G1 X94.000 Y115.256 E6.93331 ; skirt
G1 X91.469 Y114.858 E6.95867 ; skirt
G1 X89.182 Y113.704 E6.98404 ; skirt
G1 X87.358 Y111.903 E7.00940 ; skirt
G1 X86.175 Y109.631 E7.03477 ; skirt
G1 X85.744 Y107.000 E7.06116 ; skirt
G1 X85.744 Y93.150 E7.19828 ; skirt
G1 X86.142 Y90.619 E7.22365 ; skirt
G1 X87.296 Y88.332 E7.24901 ; skirt
G1 X88.724 Y86.886 E7.26913 ; skirt
G1 X88.906 Y87.070 F7800.000 ; move to first skirt point
G1 X89.340 Y86.642 E7.27516 F1200.000 ; skirt
G1 X91.596 Y85.514 E7.30014 ; skirt
G1 X94.000 Y85.145 E7.32421 ; skirt
G1 X106.000 Y85.145 E7.44301 ; skirt
G1 X108.491 Y85.543 E7.46799 ; skirt
G1 X110.735 Y86.696 E7.49296 F1200.000 ; skirt
G1 X112.508 Y88.490 E7.51794 ; skirt
G1 X113.636 Y90.746 E7.54292 ; skirt
G1 X114.005 Y93.150 E7.56699 ; skirt
G1 X114.005 Y107.000 E7.70411 ; skirt
G1 X113.607 Y109.491 E7.72908 ; skirt
G1 X112.454 Y111.735 E7.75406 ; skirt
G1 X110.660 Y113.508 E7.77903 ; skirt
G1 X108.404 Y114.636 E7.80401 ; skirt
G1 X106.000 Y115.005 E7.82808 ; skirt
G1 X94.000 Y115.005 E7.94689 ; skirt
G1 X91.509 Y114.607 E7.97186 ; skirt
G1 X89.265 Y113.454 E7.99684 ; skirt
G1 X87.492 Y111.660 E8.02181 ; skirt
G1 X86.364 Y109.404 E8.04679 ; skirt
G1 X85.995 Y107.000 E8.07086 ; skirt
G1 X85.995 Y93.150 E8.20798 ; skirt
G1 X86.393 Y90.659 E8.23295 ; skirt
G1 X87.546 Y88.415 E8.25793 ; skirt
G1 X88.874 Y87.102 E8.27642 ; skirt
G1 X89.053 Y87.287 F7800.000 ; move to first skirt point
G1 X89.582 Y86.777 E8.28370 F1200.000 ; skirt
G1 X91.823 Y85.708 E8.30828 ; skirt
G1 X94.000 Y85.396 E8.33006 ; skirt
G1 X106.000 Y85.396 E8.44886 ; skirt
G1 X108.451 Y85.793 E8.47344 ; skirt
G1 X110.650 Y86.945 E8.49802 F1200.000 ; skirt
G1 X112.373 Y88.732 E8.52259 ; skirt
G1 X113.442 Y90.973 E8.54717 ; skirt
G1 X113.754 Y93.150 E8.56895 ; skirt
G1 X113.754 Y107.000 E8.70607 ; skirt
G1 X113.357 Y109.451 E8.73065 ; skirt
G1 X112.205 Y111.650 E8.75523 ; skirt
G1 X110.418 Y113.373 E8.77980 ; skirt
G1 X108.177 Y114.442 E8.80438 ; skirt
G1 X106.000 Y114.754 E8.82616 ; skirt
G1 X94.000 Y114.754 E8.94496 ; skirt
G1 X91.549 Y114.357 E8.96954 ; skirt
G1 X89.350 Y113.205 E8.99412 ; skirt
G1 X87.627 Y111.418 E9.01870 ; skirt
G1 X86.558 Y109.177 E9.04328 ; skirt
G1 X86.246 Y107.000 E9.06505 ; skirt
G1 X86.246 Y93.150 E9.20217 ; skirt
G1 X86.643 Y90.699 E9.22675 ; skirt
G1 X87.795 Y88.500 E9.25133 ; skirt
G1 X89.020 Y87.319 E9.26818 ; skirt
G1 X89.196 Y87.505 F7800.000 ; move to first skirt point
G1 X89.824 Y86.915 E9.27672 F1200.000 ; skirt
G1 X92.047 Y85.905 E9.30089 ; skirt
G1 X94.000 Y85.646 E9.32039 ; skirt
G1 X106.000 Y85.646 E9.43920 ; skirt
G1 X108.409 Y86.044 E9.46337 ; skirt
G1 X110.564 Y87.194 E9.48755 F1200.000 ; skirt
G1 X112.235 Y88.974 E9.51172 ; skirt
G1 X113.245 Y91.197 E9.53590 ; skirt
G1 X113.504 Y93.150 E9.55540 ; skirt
G1 X113.504 Y107.000 E9.69252 ; skirt
G1 X113.106 Y109.409 E9.71669 ; skirt
G1 X111.956 Y111.564 E9.74087 ; skirt
G1 X110.176 Y113.235 E9.76504 ; skirt
G1 X107.953 Y114.245 E9.78922 ; skirt
G1 X106.000 Y114.504 E9.80872 ; skirt
G1 X94.000 Y114.504 E9.92752 ; skirt
G1 X91.591 Y114.106 E9.95170 ; skirt
G1 X89.436 Y112.956 E9.97587 ; skirt
G1 X87.765 Y111.176 E10.00005 ; skirt
G1 X86.755 Y108.953 E10.02423 ; skirt
G1 X86.496 Y107.000 E10.04373 ; skirt
G1 X86.496 Y93.150 E10.18085 ; skirt
G1 X86.894 Y90.741 E10.20502 ; skirt
G1 X88.044 Y88.586 E10.22920 ; skirt
G1 X89.163 Y87.536 E10.24439 ; skirt
G1 X89.334 Y87.724 F7800.000 ; move to first skirt point
G1 X90.066 Y87.057 E10.25420 F1200.000 ; skirt
G1 X92.270 Y86.106 E10.27796 ; skirt
G1 X94.000 Y85.897 E10.29521 ; skirt
G1 X106.000 Y85.897 E10.41402 ; skirt
G1 X108.367 Y86.294 E10.43778 ; skirt
G1 X110.476 Y87.442 E10.46155 F1200.000 ; skirt
G1 X112.093 Y89.216 E10.48531 ; skirt
G1 X113.044 Y91.420 E10.50908 ; skirt
G1 X113.253 Y93.150 E10.52633 ; skirt
G1 X113.253 Y107.000 E10.66345 ; skirt
G1 X112.856 Y109.367 E10.68721 ; skirt
G1 X111.708 Y111.476 E10.71098 ; skirt
G1 X109.934 Y113.093 E10.73474 ; skirt
G1 X107.730 Y114.044 E10.75851 ; skirt
G1 X106.000 Y114.253 E10.77576 ; skirt
G1 X94.000 Y114.253 E10.89456 ; skirt
G1 X91.633 Y113.856 E10.91833 ; skirt
G1 X89.524 Y112.708 E10.94209 ; skirt
G1 X87.907 Y110.934 E10.96586 ; skirt
G1 X86.956 Y108.730 E10.98963 ; skirt
G1 X86.747 Y107.000 E11.00688 ; skirt
G1 X86.747 Y93.150 E11.14399 ; skirt
G1 X87.144 Y90.783 E11.16776 ; skirt
G1 X88.292 Y88.674 E11.19153 ; skirt
G1 X89.301 Y87.754 E11.20504 ; skirt
G1 X89.468 Y87.943 F7800.000 ; move to first skirt point
G1 X90.307 Y87.201 E11.21613 F1200.000 ; skirt
G1 X92.491 Y86.312 E11.23948 ; skirt
G1 X94.000 Y86.148 E11.25450 ; skirt
G1 X106.000 Y86.148 E11.37331 ; skirt
G1 X108.325 Y86.545 E11.39666 ; skirt
G1 X110.386 Y87.691 E11.42000 F1200.000 ; skirt
G1 X111.949 Y89.457 E11.44335 ; skirt
G1 X112.838 Y91.641 E11.46670 ; skirt
G1 X113.002 Y93.150 E11.48173 ; skirt
G1 X113.002 Y107.000 E11.61884 ; skirt
G1 X112.605 Y109.325 E11.64219 ; skirt
G1 X111.459 Y111.386 E11.66554 ; skirt
G1 X109.693 Y112.949 E11.68889 ; skirt
G1 X107.509 Y113.838 E11.71224 ; skirt
G1 X106.000 Y114.002 E11.72727 ; skirt
G1 X94.000 Y114.002 E11.84607 ; skirt
G1 X91.675 Y113.605 E11.86942 ; skirt
G1 X89.614 Y112.459 E11.89276 ; skirt
G1 X88.051 Y110.693 E11.91611 ; skirt
G1 X87.162 Y108.509 E11.93946 ; skirt
G1 X86.998 Y107.000 E11.95449 ; skirt
G1 X86.998 Y93.150 E12.09161 ; skirt
G1 X87.395 Y90.825 E12.11495 ; skirt
G1 X88.541 Y88.764 E12.13830 ; skirt
G1 X89.435 Y87.973 E12.15012 ; skirt
G1 X89.597 Y88.163 F7800.000 ; move to first skirt point
G1 X90.547 Y87.348 E12.16251 F1200.000 ; skirt
G1 X92.710 Y86.522 E12.18543 ; skirt
G1 X94.000 Y86.398 E12.19826 ; skirt
G1 X106.000 Y86.398 E12.31706 ; skirt
G1 X108.281 Y86.795 E12.33998 ; skirt
G1 X110.294 Y87.940 E12.36291 F1200.000 ; skirt
G1 X111.802 Y89.697 E12.38583 ; skirt
G1 X112.628 Y91.860 E12.40876 ; skirt
G1 X112.752 Y93.150 E12.42159 ; skirt
G1 X112.752 Y107.000 E12.55870 ; skirt
G1 X112.355 Y109.281 E12.58163 ; skirt
G1 X111.210 Y111.294 E12.60455 ; skirt
G1 X109.453 Y112.802 E12.62747 ; skirt
G1 X107.290 Y113.628 E12.65040 ; skirt
G1 X106.000 Y113.752 E12.66323 ; skirt
G1 X94.000 Y113.752 E12.78203 ; skirt
G1 X91.719 Y113.355 E12.80495 ; skirt
G1 X89.706 Y112.210 E12.82788 ; skirt
G1 X88.198 Y110.453 E12.85080 ; skirt
G1 X87.372 Y108.290 E12.87373 ; skirt
G1 X87.248 Y107.000 E12.88655 ; skirt
G1 X87.248 Y93.150 E13.02367 ; skirt
G1 X87.645 Y90.869 E13.04660 ; skirt
G1 X88.790 Y88.856 E13.06952 ; skirt
G1 X89.563 Y88.192 E13.07961 ; skirt
G1 X89.721 Y88.382 F7800.000 ; move to first skirt point
G1 X90.786 Y87.499 E13.09331 F1200.000 ; skirt
G1 X94.000 Y86.649 E13.12623 ; skirt
G1 X106.000 Y86.649 E13.24503 ; skirt
G1 X108.237 Y87.046 E13.26752 ; skirt
G1 X110.201 Y88.188 E13.29001 F1200.000 ; skirt
G1 X111.651 Y89.936 E13.31250 ; skirt
G1 X112.501 Y93.150 E13.34541 ; skirt
G1 X112.501 Y107.000 E13.48253 ; skirt
G1 X112.104 Y109.237 E13.50502 ; skirt
G1 X110.962 Y111.201 E13.52751 ; skirt
G1 X109.214 Y112.651 E13.55000 ; skirt
G1 X106.000 Y113.501 E13.58292 ; skirt
G1 X94.000 Y113.501 E13.70172 ; skirt
G1 X91.763 Y113.104 E13.72421 ; skirt
G1 X89.799 Y111.962 E13.74670 ; skirt
G1 X88.349 Y110.214 E13.76919 ; skirt
G1 X87.499 Y107.000 E13.80210 ; skirt
G1 X87.499 Y93.150 E13.93922 ; skirt
G1 X87.896 Y90.913 E13.96171 ; skirt
G1 X89.038 Y88.949 E13.98420 ; skirt
G1 X89.687 Y88.411 E13.99255 ; skirt
G1 X89.840 Y88.602 F7800.000 ; move to first skirt point
G1 X91.025 Y87.653 E14.00758 F1200.000 ; skirt
G1 X94.000 Y86.899 E14.03797 ; skirt
G1 X106.000 Y86.899 E14.15677 ; skirt
G1 X108.192 Y87.296 E14.17882 ; skirt
G1 X110.105 Y88.436 E14.20087 F1200.000 ; skirt
G1 X111.497 Y90.175 E14.22292 ; skirt
G1 X112.251 Y93.150 E14.25330 ; skirt
G1 X112.251 Y107.000 E14.39042 ; skirt
G1 X111.854 Y109.192 E14.41247 ; skirt
G1 X110.714 Y111.105 E14.43452 ; skirt
G1 X108.975 Y112.497 E14.45657 ; skirt
G1 X106.000 Y113.251 E14.48696 ; skirt
G1 X94.000 Y113.251 E14.60576 ; skirt
G1 X91.808 Y112.854 E14.62781 ; skirt
G1 X89.895 Y111.714 E14.64986 ; skirt
G1 X88.503 Y109.975 E14.67191 ; skirt
G1 X87.749 Y107.000 E14.70230 ; skirt
G1 X87.749 Y93.150 E14.83942 ; skirt
G1 X88.146 Y90.958 E14.86146 ; skirt
G1 X89.286 Y89.045 E14.88351 ; skirt
G1 X89.804 Y88.630 E14.89009 ; skirt
G1 E12.89009 F2400.00000 ; retract
G92 E0 ; reset extrusion distance
G1 X100.762 Y93.794 F7800.000 ; move to first perimeter point
G1 E2.00000 F2400.00000 ; unretract
G1 X105.356 Y93.794 E2.04549 F1440.000 ; perimeter
G1 X105.356 Y106.356 E2.16986 ; perimeter
G1 X94.644 Y106.356 E2.27592 F1440.000 ; perimeter
G1 X94.644 Y93.794 E2.40029 ; perimeter
G1 X100.717 Y93.794 E2.46041 ; perimeter
G1 X100.717 Y93.543 F7800.000 ; move to first perimeter point
G1 X105.607 Y93.543 E2.50883 F1440.000 ; perimeter
G1 X105.607 Y106.607 E2.63816 ; perimeter
G1 X94.393 Y106.607 E2.74918 F1440.000 ; perimeter
G1 X94.393 Y93.543 E2.87851 ; perimeter
G1 X100.672 Y93.543 E2.94067 ; perimeter
G1 X100.672 Y93.300 F7800.000 ; move to first perimeter point
G1 X105.850 Y93.300 E2.98887 F720.000 ; perimeter
G1 X105.850 Y106.850 E3.11499 ; perimeter
G1 X94.150 Y106.850 E3.22389 F720.000 ; perimeter
G1 X94.150 Y93.300 E3.35001 ; perimeter
G1 X100.627 Y93.300 E3.41029 ; perimeter
G1 X100.822 Y93.560 F7800.000 ; move inwards before travel
G1 X100.480 Y94.007 F7800.000 ; move to first infill point
G1 X100.000 Y94.486 E3.41700 F720.000 ; infill
G1 X99.520 Y94.007 E3.42372 ; infill
G1 X99.019 Y94.007 F7800.000 ; move to first infill point
G1 X100.000 Y94.988 E3.43745 F720.000 ; infill
G1 X100.981 Y94.007 E3.45119 ; infill
G1 X101.482 Y94.007 F7800.000 ; move to first infill point
G1 X100.000 Y95.489 E3.47194 F720.000 ; infill
G1 X98.518 Y94.007 E3.49269 ; infill
G1 X98.017 Y94.007 F7800.000 ; move to first infill point
G1 X100.000 Y95.990 E3.52046 F720.000 ; infill
G1 X101.983 Y94.007 E3.54823 ; infill
G1 X102.005 Y94.007 F7800.000 ; move to first infill point
G1 X102.005 Y97.995 E3.58771 F720.000 ; infill
G1 X105.143 Y97.995 E3.61878 ; infill
G1 X105.143 Y97.744 F7800.000 ; move to first infill point
G1 X102.256 Y97.744 E3.64737 F720.000 ; infill
G1 X102.256 Y94.007 E3.68437 ; infill
G1 X102.506 Y94.007 F7800.000 ; move to first infill point
G1 X102.506 Y97.494 E3.71890 F720.000 ; infill
G1 X105.143 Y97.494 E3.74500 ; infill
G1 X105.143 Y97.243 F7800.000 ; move to first infill point
G1 X102.757 Y97.243 E3.76863 F720.000 ; infill
G1 X102.757 Y94.007 E3.80067 ; infill
G1 X103.007 Y94.007 F7800.000 ; move to first infill point
G1 X103.007 Y96.993 E3.83023 F720.000 ; infill
G1 X105.143 Y96.993 E3.85138 ; infill
