; generated by Slic3r 1.2.9 on 2021-01-08 at 22:56:21

; external perimeters extrusion width = 0.30mm
; perimeters extrusion width = 0.40mm
; infill extrusion width = 0.40mm
; solid infill extrusion width = 0.40mm
; top infill extrusion width = 0.40mm

M107 ; disable fan
M42 P45 S150 ; Turn on electronics fan

M140 S60 ; Set Bed first_layer_bed_temperature
M104 S190 T0 ; Set Hotend first_layer_temperature_0

G1 Z5 F5000 ; lift nozzle
G28 ; home all axes
G1 Z5 F5000 ; lift nozzle

M109 R190 T0 ; Wait for Hotend first_layer_temperature_0


G21 ; set units to millimeters
G90 ; use absolute coordinates
M82 ; use absolute distances for extrusion
G92 E0 ; reset extrusion distance
G1 E-2.00000 F2400.00000 ; retract
G92 E0 ; reset extrusion distance
G1 Z0.300 F7800.000 ; move to next layer (0)
G1 X88.120 Y87.514 F7800.000 ; move to first skirt point
G1 E2.00000 F2400.00000 ; unretract
G1 X90.447 Y86.116 E2.02687 F1200.000 ; skirt
G1 X94.000 Y85.407 E2.06274 ; skirt
G1 X106.000 Y85.407 E2.18154 ; skirt
G1 X108.685 Y85.805 E2.20841 ; skirt
G1 X111.139 Y86.964 E2.23528 F1200.000 ; skirt
G1 X113.151 Y88.785 E2.26216 ; skirt
G1 X114.549 Y91.112 E2.28903 ; skirt
G1 X115.258 Y94.665 E2.32490 ; skirt
G1 X115.258 Y105.500 E2.43217 ; skirt
G1 X114.860 Y108.185 E2.45904 ; skirt
G1 X113.701 Y110.639 E2.48591 ; skirt
G1 X111.880 Y112.651 E2.51278 ; skirt
G1 X109.553 Y114.049 E2.53965 ; skirt
G1 X106.000 Y114.758 E2.57552 ; skirt
G1 X94.000 Y114.758 E2.69432 ; skirt
G1 X91.315 Y114.360 E2.72119 ; skirt
G1 X88.861 Y113.201 E2.74806 ; skirt
G1 X86.849 Y111.380 E2.77493 ; skirt
G1 X85.451 Y109.053 E2.80180 ; skirt
G1 X84.742 Y105.500 E2.83767 ; skirt
G1 X84.742 Y94.665 E2.94494 ; skirt
G1 X85.140 Y91.980 E2.97181 ; skirt
G1 X86.299 Y89.526 E2.99868 ; skirt
G1 X88.090 Y87.547 E3.02511 ; skirt
G1 X88.284 Y87.726 F7800.000 ; move to first skirt point
G1 X88.365 Y87.638 E3.02629 F1200.000 ; skirt
G1 X90.679 Y86.292 E3.05279 ; skirt
G1 X94.000 Y85.658 E3.08627 ; skirt
G1 X106.000 Y85.658 E3.20507 ; skirt
G1 X108.647 Y86.055 E3.23157 ; skirt
G1 X111.061 Y87.214 E3.25808 F1200.000 ; skirt
G1 X113.027 Y89.030 E3.28458 ; skirt
G1 X114.373 Y91.344 E3.31108 ; skirt
G1 X115.007 Y94.665 E3.34455 ; skirt
G1 X115.007 Y105.500 E3.45182 ; skirt
G1 X114.610 Y108.147 E3.47833 ; skirt
G1 X113.451 Y110.561 E3.50483 ; skirt
G1 X111.635 Y112.527 E3.53133 ; skirt
G1 X109.321 Y113.873 E3.55783 ; skirt
G1 X106.000 Y114.507 E3.59131 ; skirt
G1 X94.000 Y114.507 E3.71011 ; skirt
G1 X91.353 Y114.110 E3.73661 ; skirt
G1 X88.939 Y112.951 E3.76311 ; skirt
G1 X86.973 Y111.135 E3.78961 ; skirt
G1 X85.627 Y108.821 E3.81612 ; skirt
G1 X84.993 Y105.500 E3.84959 ; skirt
G1 X84.993 Y94.665 E3.95686 ; skirt
G1 X85.390 Y92.018 E3.98336 ; skirt
G1 X86.549 Y89.604 E4.00986 ; skirt
G1 X88.253 Y87.759 E4.03474 ; skirt
G1 X88.444 Y87.939 F7800.000 ; move to first skirt point
G1 X88.609 Y87.764 E4.03712 F1200.000 ; skirt
G1 X90.910 Y86.471 E4.06325 ; skirt
G1 X94.000 Y85.908 E4.09434 ; skirt
G1 X106.000 Y85.908 E4.21314 ; skirt
G1 X108.609 Y86.306 E4.23927 ; skirt
G1 X110.981 Y87.463 E4.26540 F1200.000 ; skirt
G1 X112.901 Y89.274 E4.29153 ; skirt
G1 X114.194 Y91.575 E4.31766 ; skirt
G1 X114.757 Y94.665 E4.34875 ; skirt
G1 X114.757 Y105.500 E4.45602 ; skirt
G1 X114.359 Y108.109 E4.48215 ; skirt
G1 X113.202 Y110.481 E4.50828 ; skirt
G1 X111.391 Y112.401 E4.53441 ; skirt
G1 X109.090 Y113.694 E4.56054 ; skirt
G1 X106.000 Y114.257 E4.59163 ; skirt
G1 X94.000 Y114.257 E4.71044 ; skirt
G1 X91.391 Y113.859 E4.73656 ; skirt
G1 X89.019 Y112.702 E4.76269 ; skirt
G1 X87.099 Y110.891 E4.78882 ; skirt
G1 X85.806 Y108.590 E4.81495 ; skirt
G1 X85.243 Y105.500 E4.84605 ; skirt
G1 X85.243 Y94.665 E4.95331 ; skirt
G1 X85.641 Y92.056 E4.97944 ; skirt
G1 X86.798 Y89.684 E5.00557 ; skirt
G1 X88.413 Y87.972 E5.02887 ; skirt
G1 X88.601 Y88.153 F7800.000 ; move to first skirt point
G1 X88.853 Y87.893 E5.03246 F1200.000 ; skirt
G1 X91.140 Y86.654 E5.05821 ; skirt
G1 X94.000 Y86.159 E5.08695 ; skirt
G1 X106.000 Y86.159 E5.20575 ; skirt
G1 X108.570 Y86.556 E5.23150 ; skirt
G1 X110.900 Y87.712 E5.25725 F1200.000 ; skirt
G1 X112.772 Y89.518 E5.28300 ; skirt
G1 X114.011 Y91.805 E5.30875 ; skirt
G1 X114.506 Y94.665 E5.33748 ; skirt
G1 X114.506 Y105.500 E5.44475 ; skirt
G1 X114.109 Y108.070 E5.47050 ; skirt
G1 X112.953 Y110.400 E5.49625 ; skirt
G1 X111.147 Y112.272 E5.52200 ; skirt
G1 X108.860 Y113.511 E5.54775 ; skirt
G1 X106.000 Y114.006 E5.57649 ; skirt
G1 X94.000 Y114.006 E5.69529 ; skirt
G1 X91.430 Y113.609 E5.72104 ; skirt
G1 X89.100 Y112.453 E5.74679 ; skirt
G1 X87.228 Y110.647 E5.77254 ; skirt
G1 X85.989 Y108.360 E5.79829 ; skirt
G1 X85.494 Y105.500 E5.82703 ; skirt
G1 X85.494 Y94.665 E5.93429 ; skirt
G1 X85.891 Y92.095 E5.96004 ; skirt
G1 X87.047 Y89.765 E5.98579 ; skirt
G1 X88.570 Y88.186 E6.00751 ; skirt
G1 X88.756 Y88.369 F7800.000 ; move to first skirt point
G1 X89.097 Y88.023 E6.01232 F1200.000 ; skirt
G1 X91.369 Y86.840 E6.03768 ; skirt
G1 X94.000 Y86.409 E6.06408 ; skirt
G1 X106.000 Y86.409 E6.18288 ; skirt
G1 X108.531 Y86.807 E6.20825 ; skirt
G1 X110.818 Y87.961 E6.23361 F1200.000 ; skirt
G1 X112.642 Y89.762 E6.25898 ; skirt
G1 X113.825 Y92.034 E6.28434 ; skirt
G1 X114.256 Y94.665 E6.31074 ; skirt
G1 X114.256 Y105.500 E6.41801 ; skirt
G1 X113.858 Y108.031 E6.44337 ; skirt
G1 X112.704 Y110.318 E6.46874 ; skirt
G1 X110.903 Y112.142 E6.49410 ; skirt
G1 X108.631 Y113.325 E6.51947 ; skirt
G1 X106.000 Y113.756 E6.54586 ; skirt
G1 X94.000 Y113.756 E6.66466 ; skirt
G1 X91.469 Y113.358 E6.69003 ; skirt
G1 X89.182 Y112.204 E6.71540 ; skirt
G1 X87.358 Y110.403 E6.74076 ; skirt
G1 X86.175 Y108.131 E6.76613 ; skirt
G1 X85.744 Y105.500 E6.79252 ; skirt
G1 X85.744 Y94.665 E6.89979 ; skirt
G1 X86.142 Y92.134 E6.92516 ; skirt
G1 X87.296 Y89.847 E6.95052 ; skirt
G1 X88.724 Y88.401 E6.97064 ; skirt
G1 X88.906 Y88.585 F7800.000 ; move to first skirt point
G1 X89.340 Y88.157 E6.97667 F1200.000 ; skirt
G1 X91.596 Y87.029 E7.00165 ; skirt
G1 X94.000 Y86.660 E7.02572 ; skirt
G1 X106.000 Y86.660 E7.14452 ; skirt
G1 X108.491 Y87.058 E7.16950 ; skirt
G1 X110.735 Y88.211 E7.19447 F1200.000 ; skirt
G1 X112.508 Y90.005 E7.21945 ; skirt
G1 X113.636 Y92.261 E7.24442 ; skirt
G1 X114.005 Y94.665 E7.26850 ; skirt
G1 X114.005 Y105.500 E7.37577 ; skirt
G1 X113.607 Y107.991 E7.40074 ; skirt
G1 X112.454 Y110.235 E7.42572 ; skirt
G1 X110.660 Y112.008 E7.45069 ; skirt
G1 X108.404 Y113.136 E7.47567 ; skirt
G1 X106.000 Y113.505 E7.49974 ; skirt
G1 X94.000 Y113.505 E7.61855 ; skirt
G1 X91.509 Y113.107 E7.64352 ; skirt
G1 X89.265 Y111.954 E7.66850 ; skirt
G1 X87.492 Y110.160 E7.69347 ; skirt
G1 X86.364 Y107.904 E7.71845 ; skirt
G1 X85.995 Y105.500 E7.74252 ; skirt
G1 X85.995 Y94.665 E7.84979 ; skirt
G1 X86.393 Y92.174 E7.87476 ; skirt
G1 X87.546 Y89.930 E7.89974 ; skirt
G1 X88.874 Y88.617 E7.91823 ; skirt
G1 X89.053 Y88.802 F7800.000 ; move to first skirt point
G1 X89.582 Y88.292 E7.92551 F1200.000 ; skirt
G1 X91.823 Y87.223 E7.95009 ; skirt
G1 X94.000 Y86.911 E7.97187 ; skirt
G1 X106.000 Y86.911 E8.09067 ; skirt
G1 X108.451 Y87.308 E8.11525 ; skirt
G1 X110.650 Y88.460 E8.13983 F1200.000 ; skirt
G1 X112.373 Y90.247 E8.16441 ; skirt
G1 X113.442 Y92.488 E8.18898 ; skirt
G1 X113.754 Y94.665 E8.21076 ; skirt
G1 X113.754 Y105.500 E8.31803 ; skirt
G1 X113.357 Y107.951 E8.34261 ; skirt
G1 X112.205 Y110.150 E8.36719 ; skirt
G1 X110.418 Y111.873 E8.39176 ; skirt
G1 X108.177 Y112.942 E8.41634 ; skirt
G1 X106.000 Y113.254 E8.43812 ; skirt
G1 X94.000 Y113.254 E8.55692 ; skirt
G1 X91.549 Y112.857 E8.58150 ; skirt
G1 X89.350 Y111.705 E8.60608 ; skirt
G1 X87.627 Y109.918 E8.63066 ; skirt
G1 X86.558 Y107.677 E8.65524 ; skirt
G1 X86.246 Y105.500 E8.67701 ; skirt
G1 X86.246 Y94.665 E8.78428 ; skirt
G1 X86.643 Y92.214 E8.80886 ; skirt
G1 X87.795 Y90.015 E8.83344 ; skirt
G1 X89.020 Y88.834 E8.85029 ; skirt
G1 X89.196 Y89.020 F7800.000 ; move to first skirt point
G1 X89.824 Y88.430 E8.85883 F1200.000 ; skirt
G1 X92.047 Y87.420 E8.88300 ; skirt
G1 X94.000 Y87.161 E8.90251 ; skirt
G1 X106.000 Y87.161 E9.02131 ; skirt
G1 X108.409 Y87.559 E9.04548 ; skirt
G1 X110.564 Y88.709 E9.06966 F1200.000 ; skirt
G1 X112.235 Y90.489 E9.09383 ; skirt
G1 X113.245 Y92.712 E9.11801 ; skirt
G1 X113.504 Y94.665 E9.13751 ; skirt
G1 X113.504 Y105.500 E9.24478 ; skirt
G1 X113.106 Y107.909 E9.26896 ; skirt
G1 X111.956 Y110.064 E9.29313 ; skirt
G1 X110.176 Y111.735 E9.31731 ; skirt
G1 X107.953 Y112.745 E9.34148 ; skirt
G1 X106.000 Y113.004 E9.36098 ; skirt
G1 X94.000 Y113.004 E9.47979 ; skirt
G1 X91.591 Y112.606 E9.50396 ; skirt
G1 X89.436 Y111.456 E9.52814 ; skirt
G1 X87.765 Y109.676 E9.55231 ; skirt
G1 X86.755 Y107.453 E9.57649 ; skirt
G1 X86.496 Y105.500 E9.59599 ; skirt
G1 X86.496 Y94.665 E9.70326 ; skirt
G1 X86.894 Y92.256 E9.72743 ; skirt
G1 X88.044 Y90.101 E9.75161 ; skirt
G1 X89.163 Y89.051 E9.76681 ; skirt
G1 X89.334 Y89.239 F7800.000 ; move to first skirt point
G1 X90.066 Y88.572 E9.77661 F1200.000 ; skirt
G1 X92.270 Y87.621 E9.80038 ; skirt
G1 X94.000 Y87.412 E9.81763 ; skirt
G1 X106.000 Y87.412 E9.93643 ; skirt
G1 X108.367 Y87.809 E9.96019 ; skirt
G1 X110.476 Y88.957 E9.98396 F1200.000 ; skirt
G1 X112.093 Y90.731 E10.00773 ; skirt
G1 X113.044 Y92.935 E10.03149 ; skirt
G1 X113.253 Y94.665 E10.04874 ; skirt
G1 X113.253 Y105.500 E10.15601 ; skirt
G1 X112.856 Y107.867 E10.17978 ; skirt
G1 X111.708 Y109.976 E10.20354 ; skirt
G1 X109.934 Y111.593 E10.22731 ; skirt
G1 X107.730 Y112.544 E10.25107 ; skirt
G1 X106.000 Y112.753 E10.26832 ; skirt
G1 X94.000 Y112.753 E10.38713 ; skirt
G1 X91.633 Y112.356 E10.41089 ; skirt
G1 X89.524 Y111.208 E10.43466 ; skirt
G1 X87.907 Y109.434 E10.45842 ; skirt
G1 X86.956 Y107.230 E10.48219 ; skirt
G1 X86.747 Y105.500 E10.49944 ; skirt
G1 X86.747 Y94.665 E10.60671 ; skirt
G1 X87.144 Y92.298 E10.63047 ; skirt
G1 X88.292 Y90.189 E10.65424 ; skirt
G1 X89.301 Y89.269 E10.66776 ; skirt
G1 X89.468 Y89.458 F7800.000 ; move to first skirt point
G1 X90.307 Y88.716 E10.67884 F1200.000 ; skirt
G1 X92.491 Y87.827 E10.70219 ; skirt
G1 X94.000 Y87.663 E10.71722 ; skirt
G1 X106.000 Y87.663 E10.83602 ; skirt
G1 X108.325 Y88.060 E10.85937 ; skirt
G1 X110.386 Y89.206 E10.88272 F1200.000 ; skirt
G1 X111.949 Y90.972 E10.90607 ; skirt
G1 X112.838 Y93.156 E10.92942 ; skirt
G1 X113.002 Y94.665 E10.94444 ; skirt
G1 X113.002 Y105.500 E11.05171 ; skirt
G1 X112.605 Y107.825 E11.07506 ; skirt
G1 X111.459 Y109.886 E11.09841 ; skirt
G1 X109.693 Y111.449 E11.12176 ; skirt
G1 X107.509 Y112.338 E11.14511 ; skirt
G1 X106.000 Y112.502 E11.16013 ; skirt
G1 X94.000 Y112.502 E11.27893 ; skirt
G1 X91.675 Y112.105 E11.30228 ; skirt
G1 X89.614 Y110.959 E11.32563 ; skirt
G1 X88.051 Y109.193 E11.34898 ; skirt
G1 X87.162 Y107.009 E11.37233 ; skirt
G1 X86.998 Y105.500 E11.38735 ; skirt
G1 X86.998 Y94.665 E11.49462 ; skirt
G1 X87.395 Y92.340 E11.51797 ; skirt
G1 X88.541 Y90.279 E11.54132 ; skirt
G1 X89.435 Y89.488 E11.55314 ; skirt
G1 X89.597 Y89.678 F7800.000 ; move to first skirt point
G1 X90.547 Y88.863 E11.56552 F1200.000 ; skirt
G1 X92.710 Y88.037 E11.58845 ; skirt
G1 X94.000 Y87.913 E11.60128 ; skirt
G1 X106.000 Y87.913 E11.72008 ; skirt
G1 X108.281 Y88.310 E11.74300 ; skirt
G1 X110.294 Y89.455 E11.76593 F1200.000 ; skirt
G1 X111.802 Y91.212 E11.78885 ; skirt
G1 X112.628 Y93.375 E11.81177 ; skirt
G1 X112.752 Y94.665 E11.82460 ; skirt
G1 X112.752 Y105.500 E11.93187 ; skirt
G1 X112.355 Y107.781 E11.95480 ; skirt
G1 X111.210 Y109.794 E11.97772 ; skirt
G1 X109.453 Y111.302 E12.00064 ; skirt
G1 X107.290 Y112.128 E12.02357 ; skirt
G1 X106.000 Y112.252 E12.03640 ; skirt
G1 X94.000 Y112.252 E12.15520 ; skirt
G1 X91.719 Y111.855 E12.17812 ; skirt
G1 X89.706 Y110.710 E12.20105 ; skirt
G1 X88.198 Y108.953 E12.22397 ; skirt
G1 X87.372 Y106.790 E12.24689 ; skirt
G1 X87.248 Y105.500 E12.25972 ; skirt
G1 X87.248 Y94.665 E12.36699 ; skirt
G1 X87.645 Y92.384 E12.38992 ; skirt
G1 X88.790 Y90.371 E12.41284 ; skirt
G1 X89.563 Y89.707 E12.42293 ; skirt
G1 X89.721 Y89.897 F7800.000 ; move to first skirt point
G1 X90.786 Y89.014 E12.43663 F1200.000 ; skirt
G1 X94.000 Y88.164 E12.46954 ; skirt
G1 X106.000 Y88.164 E12.58835 ; skirt
G1 X108.237 Y88.561 E12.61084 ; skirt
G1 X110.201 Y89.703 E12.63333 F1200.000 ; skirt
G1 X111.651 Y91.451 E12.65582 ; skirt
G1 X112.501 Y94.665 E12.68873 ; skirt
G1 X112.501 Y105.500 E12.79600 ; skirt
G1 X112.104 Y107.737 E12.81849 ; skirt
G1 X110.962 Y109.701 E12.84098 ; skirt
G1 X109.214 Y111.151 E12.86347 ; skirt
G1 X106.000 Y112.001 E12.89638 ; skirt
G1 X94.000 Y112.001 E13.01519 ; skirt
G1 X91.763 Y111.604 E13.03768 ; skirt
G1 X89.799 Y110.462 E13.06017 ; skirt
G1 X88.349 Y108.714 E13.08266 ; skirt
G1 X87.499 Y105.500 E13.11557 ; skirt
G1 X87.499 Y94.665 E13.22284 ; skirt
G1 X87.896 Y92.428 E13.24533 ; skirt
G1 X89.038 Y90.464 E13.26782 ; skirt
G1 X89.687 Y89.926 E13.27617 ; skirt
G1 X89.840 Y90.117 F7800.000 ; move to first skirt point
G1 X91.025 Y89.168 E13.29120 F1200.000 ; skirt
G1 X94.000 Y88.414 E13.32159 ; skirt
G1 X106.000 Y88.414 E13.44039 ; skirt
G1 X108.192 Y88.811 E13.46244 ; skirt
G1 X110.105 Y89.951 E13.48449 F1200.000 ; skirt
G1 X111.497 Y91.690 E13.50654 ; skirt
G1 X112.251 Y94.665 E13.53693 ; skirt
G1 X112.251 Y105.500 E13.64419 ; skirt
G1 X111.854 Y107.692 E13.66624 ; skirt
G1 X110.714 Y109.605 E13.68829 ; skirt
G1 X108.975 Y110.997 E13.71034 ; skirt
G1 X106.000 Y111.751 E13.74073 ; skirt
G1 X94.000 Y111.751 E13.85953 ; skirt
G1 X91.808 Y111.354 E13.88158 ; skirt
G1 X89.895 Y110.214 E13.90363 ; skirt
G1 X88.503 Y108.475 E13.92568 ; skirt
G1 X87.749 Y105.500 E13.95607 ; skirt
G1 X87.749 Y94.665 E14.06334 ; skirt
G1 X88.146 Y92.473 E14.08539 ; skirt
G1 X89.286 Y90.560 E14.10744 ; skirt
G1 X89.804 Y90.145 E14.11401 ; skirt
G1 E12.11401 F2400.00000 ; retract
G92 E0 ; reset extrusion distance
G1 X101.176 Y105.107 F7800.000 ; move to first perimeter point
G1 E2.00000 F2400.00000 ; unretract
G1 X94.393 Y105.107 E2.06715 F1440.000 ; perimeter
G1 X94.393 Y95.058 E2.16664 ; perimeter
G1 X105.607 Y95.058 E2.27766 ; perimeter
G1 X105.607 Y105.107 E2.37714 ; perimeter
G1 X101.221 Y105.107 E2.42056 F1440.000 ; perimeter
G1 X101.221 Y105.350 F7800.000 ; move to first perimeter point
G1 X94.150 Y105.350 E2.48638 F720.000 ; perimeter
G1 X94.150 Y94.815 E2.58443 ; perimeter
G1 X105.850 Y94.815 E2.69333 ; perimeter
G1 X105.850 Y105.350 E2.79139 ; perimeter
G1 X101.266 Y105.350 E2.83405 F720.000 ; perimeter
G1 X101.071 Y105.090 F7800.000 ; move inwards before travel
G1 X101.385 Y104.894 F7800.000 ; move to first infill point
G1 X100.000 Y103.509 E2.85345 F720.000 ; infill
G1 X98.615 Y104.894 E2.87284 ; infill
G1 X99.116 Y104.894 F7800.000 ; move to first infill point
G1 X100.000 Y104.010 E2.88522 F720.000 ; infill
G1 X100.884 Y104.894 E2.89760 ; infill
G1 X100.383 Y104.894 F7800.000 ; move to first infill point
G1 X100.000 Y104.511 E2.90295 F720.000 ; infill
G1 X99.617 Y104.894 E2.90831 ; infill
G1 X97.995 Y104.894 F7800.000 ; move to first infill point
G1 X97.995 Y102.005 E2.93691 F720.000 ; infill
G1 X94.606 Y102.005 E2.97047 ; infill
G1 X94.606 Y102.256 F7800.000 ; move to first infill point
G1 X97.744 Y102.256 E3.00153 F720.000 ; infill
G1 X97.744 Y104.894 E3.02765 ; infill
G1 X97.494 Y104.894 F7800.000 ; move to first infill point
G1 X97.494 Y102.506 E3.05129 F720.000 ; infill
G1 X94.606 Y102.506 E3.07988 ; infill
G1 X94.606 Y102.757 F7800.000 ; move to first infill point
G1 X97.243 Y102.757 E3.10599 F720.000 ; infill
G1 X97.243 Y104.894 E3.12715 ; infill
G1 X96.993 Y104.894 F7800.000 ; move to first infill point
G1 X96.993 Y103.007 E3.14582 F720.000 ; infill
G1 X94.606 Y103.007 E3.16945 ; infill
G1 X94.606 Y103.258 F7800.000 ; move to first infill point
G1 X96.742 Y103.258 E3.19059 F720.000 ; infill
G1 X96.742 Y104.894 E3.20679 ; infill
G1 X96.491 Y104.894 F7800.000 ; move to first infill point
G1 X96.491 Y103.509 E3.22050 F720.000 ; infill
G1 X94.606 Y103.509 E3.23917 ; infill
G1 X94.606 Y103.759 F7800.000 ; move to first infill point
G1 X96.241 Y103.759 E3.25535 F720.000 ; infill
G1 X96.241 Y104.894 E3.26658 ; infill
